X: 1
T: Scarborough Fair
Q: "Allegro"
M: 3/4
L: 1/4
K: C
|z3|z3|z3|z3|
|D-DD|A-AA|E>FE|D-D-D-|
|D-D-D|zAc|d-dc|ABG|
|A-A-A-|A-A-A-|A-A-A-|Azd|
|d-dd|c-cA|AGF|E-E-E-|
|E-E-E|D-DA|G-GF|EDC|
|D-D-D-|D-D-D-|D-D-D|zzz|
